X:889
T:Doon In the Wee Room
S:Sessions
Z:Nigel Gatherer
M:4/4
L:1/8
K:D
A2 GF E2 D2 | ddcB A4 | ddcB A2 F2 | AAGF E2 GF |
A2 GF E2 D2 | ddcB A4 | d2cB A2 F2 | AAGE D4 |]
